symbolic/apps/preferences-desktop-font-symbolic.svg

<svg width="16" height="16" version="1.1" xmlns="http://www.w3.org/2000/svg">
 <path d="m8.9961 2v11.012h1.0039v-0.011719h2c1.662 0 3-1.338 3-3s-1.338-3-3-3h-2v-5h-1.0039zm-6.9961 2v1.0039h2v-0.0039062c1.108 0 2 0.892 2 2h-2c-1.662 0-3 1.338-3 3s1.338 3 3 3h2v0.023438h1.0039v-6.0234h-0.0039062c0-1.662-1.338-3-3-3h-2zm2 4h2v2 2h-2c-1.108 0-2-0.892-2-2s0.892-2 2-2zm6 0h2c1.108 0 2 0.892 2 2s-0.892 2-2 2h-2v-4z" fill="#5d656b" stroke-linecap="round" stroke-linejoin="round" stroke-width=".92754"/>
</svg>

<svg width="16" height="16" xmlns="http://www.w3.org/2000/svg"><path d="M8.996 2v11.012H10V13h2c1.662 0 3-1.338 3-3s-1.338-3-3-3h-2V2H8.996zM2 4v1.004h2V5c1.108 0 2 .892 2 2H4c-1.662 0-3 1.338-3 3s1.338 3 3 3h2v.023h1.004V7H7c0-1.662-1.338-3-3-3H2zm2 4h2v4H4c-1.108 0-2-.892-2-2s.892-2 2-2zm6 0h2c1.108 0 2 .892 2 2s-.892 2-2 2h-2V8z" fill="#5d656b"/></svg>
